package/converter/svg/regular/square-arrow-left.svg

<svg xmlns="http://www.w3.org/2000/svg" viewBox="0 0 448 512"><!-- Font Awesome Pro 6.0.0-alpha2 by @fontawesome - https://fontawesome.com License - https://fontawesome.com/license (Commercial License) --><path d="M328 232.008H181.133L248.344 169.602C258.062 160.539 258.594 145.383 249.594 135.664C240.562 125.977 225.375 125.414 215.656 134.414L103.656 238.414C98.781 242.977 96 249.32 96 256.008S98.781 269.039 103.656 273.602L215.656 377.602C225.375 386.602 240.562 386.039 249.594 376.352C258.594 366.633 258.062 351.477 248.344 342.414L181.133 280.008H328C341.25 280.008 352 269.258 352 256.008S341.25 232.008 328 232.008ZM384 32H64C28.656 32 0 60.656 0 96V416C0 451.344 28.656 480 64 480H384C419.344 480 448 451.344 448 416V96C448 60.656 419.344 32 384 32ZM400 416C400 424.82 392.82 432 384 432H64C55.18 432 48 424.82 48 416V96C48 87.18 55.18 80 64 80H384C392.82 80 400 87.18 400 96V416Z"/></svg>

<svg xmlns="http://www.w3.org/2000/svg" viewBox="0 0 448 512"><!--! Font Awesome Pro 6.6.0 by @fontawesome - https://fontawesome.com License - https://fontawesome.com/license (Commercial License) Copyright 2024 Fonticons, Inc. --><path d="M48 96c0-8.8 7.2-16 16-16l320 0c8.8 0 16 7.2 16 16l0 320c0 8.8-7.2 16-16 16L64 432c-8.8 0-16-7.2-16-16L48 96zM64 32C28.7 32 0 60.7 0 96L0 416c0 35.3 28.7 64 64 64l320 0c35.3 0 64-28.7 64-64l0-320c0-35.3-28.7-64-64-64L64 32zM87 273l88 88c9.4 9.4 24.6 9.4 33.9 0s9.4-24.6 0-33.9l-47-47L344 280c13.3 0 24-10.7 24-24s-10.7-24-24-24l-182.1 0 47-47c9.4-9.4 9.4-24.6 0-33.9s-24.6-9.4-33.9 0L87 239c-9.4 9.4-9.4 24.6 0 33.9z"/></svg>
